app/result/img/search.svg

<svg width="16" height="16" viewBox="0 0 16 16" fill="none" xmlns="http://www.w3.org/2000/svg">
<path d="M7.04607 0C3.16097 0 0 3.16097 0 7.04606C0 10.9314 3.16097 14.0921 7.04607 14.0921C10.9314 14.0921 14.0921 10.9314 14.0921 7.04606C14.0921 3.16097 10.9314 0 7.04607 0ZM7.04607 12.7913C3.87816 12.7913 1.30081 10.214 1.30081 7.04609C1.30081 3.87819 3.87816 1.30081 7.04607 1.30081C10.214 1.30081 12.7913 3.87815 12.7913 7.04606C12.7913 10.214 10.214 12.7913 7.04607 12.7913Z" fill="#BE1622"/>
<path d="M15.8094 14.8897L12.0804 11.1607C11.8263 10.9067 11.4148 10.9067 11.1607 11.1607C10.9066 11.4146 10.9066 11.8266 11.1607 12.0804L14.8897 15.8094C15.0168 15.9365 15.1831 16 15.3496 16C15.5159 16 15.6824 15.9365 15.8094 15.8094C16.0635 15.5556 16.0635 15.1436 15.8094 14.8897Z" fill="#BE1622"/>
</svg>

<svg width="16" height="16" viewBox="0 0 16 16" fill="none" xmlns="http://www.w3.org/2000/svg"><path d="M7.046 0A7.054 7.054 0 0 0 0 7.046a7.054 7.054 0 0 0 7.046 7.046 7.054 7.054 0 0 0 7.046-7.046A7.054 7.054 0 0 0 7.046 0zm0 12.791a5.752 5.752 0 0 1-5.745-5.745 5.752 5.752 0 0 1 5.745-5.745 5.752 5.752 0 0 1 5.745 5.745 5.752 5.752 0 0 1-5.745 5.745z" fill="#BE1622"/><path d="M15.81 14.89l-3.73-3.73a.65.65 0 1 0-.92.92l3.73 3.73a.648.648 0 0 0 .92 0 .65.65 0 0 0 0-.92z" fill="#BE1622"/></svg>
